X: 33512
T: Rainbow Socks
R: slip jig
M: 9/8
K: Dmajor
M: 7/8
|:d2 de fed|ad bd afd|GB dg fed|ef ed cBA|
d2 de fed|ad bd afd|GB dg fed|1 Ad ce d2A:|2 Ad ce dcB||
|:A2 c'2 c'd'd'|G2 b2 afd|d2 de fed|gb af e2d|
A2 c'2 c'd'd'|G2 b2 afd|d2 de fed|1 Ad ce dcB:|2 Ad ce d3||

